X: 26903
T: Minute 5
R: reel
M: 4/4
K: Eminor
|:E3E DEG2-|G DAB AGED|E2DE G2AB|AGAB dG B/c/d|
e2ge ed B/c/d|e2AB AGED|DEGE DBAG|G4- GBAG:|
|:EAAG ABc2-|cdAB AGEG|DBAG G2DB|AGdB AGED|
EAAG ABc2-|cdAB AG B/c/d|1 eged B2eg|edBA AGED:|2 ebag gedg|gedB AGED||

